X:1
T:Auld lang syne
T:Auld lang syne
T:fra The Cornish Song Book
T:www.sangerforum.no
T:www.sangerforum.no
T:www.sangerforum.no
Z:www.sangerforum.no
%%score [ 1 2 3 4 ]
L:1/8
Q:1/4=50
M:2/4
K:F
V:1 treble nm="Soprano"
V:2 treble nm="Alto"
V:3 treble-8 nm="Tenor"
V:4 bass nm="Bass"
V:1
 C | F3/2 F/ F A | G3/2 F/ G A | F3/2 F/ A c | d3 (d/ d/) | c3/2 A/ A F | G3/2 F/ G A | %7
w: 1.Should|auld ac- quaint- ance|be for- got, And|nev- er brought to|mind? Should _|auld ac- quaint- ance|be for- got And|
w: 2.And|here's a hand, my|trust- y friend, And|gie's a hand o'|thine, And we'll|tak' a cup o'|kind- ness yet, For|
 (F3/2 D/) (D C) | F3 |: d | (c/ A3/2) (A/ F3/2) | G3/2 F/ G A | (c/ A3/2) (A/ c3/2) | d3 d | %14
w: days of lang _|syne?|For|auld _ lang _|syne, my dear, For|auld _ lang _|syne. We'll|
w: auld _ lang _|syne.||||||
 c3/2 A/ A F | G3/2 F/ G A | (F/ D3/2) (D/ C3/2) | F3 :| %18
w: tak' a cup o'|kind- ness yet, For|auld _ lang _|syne.|
w: ||||
V:2
 C | C3/2 D/ C F | E3/2 D/ E E | D3/2 D/ F G | B3 (B/ B/) | A3/2 F/ F F | E3/2 D/ E F | %7
w: 1.Should|auld ac- quaint- ance|be for- got, And|nev- er brought to|mind? Should _|auld ac- quaint- ance|be for- got And|
w: 2.And|here's a hand, my|trust- y friend, And|gie's a hand o'|thine, And we'll|tak' a cup o'|kind- ness yet, For|
 (D3/2 B,/) (B, C) | A,3 |: F | F2 F2 | E3/2 D/ E F | F2 F2 | F3 F | F3/2 F/ F F | E3/2 D/ E E | %16
w: days of lang _|syne?|For|auld lang|syne, my dear, For|auld lang|syne. We'll|tak' a cup o'|kind- ness yet, For|
w: auld _ lang _|syne.||||||||
 (D/ A,3/2) (B,/ C3/2) | A,3 :| %18
w: auld _ lang _|syne.|
w: ||
V:3
 c | A3/2 B/ A c | c3/2 c/ c c | A3/2 A/ c e | f3 (B/ B/) | c3/2 c/ c A | c3/2 c/ c c | %7
w: 1.Should|auld ac- quaint- ance|be for- got, And|nev- er brought to|mind? Should _|auld ac- quaint- ance|be for- got And|
w: 2.And|here's a hand, my|trust- y friend, And|gie's a hand o'|thine, And we'll|tak' a cup o'|kind- ness yet, For|
 (B3/2 F/) (F E) | F3 |: B | (A/ c3/2) (c/ A3/2) | c3/2 c/ c c | (A/ c3/2) (c/ A3/2) | B3 B | %14
w: days of lang _|syne?|For|auld _ lang _|syne, my dear, For|auld _ lang _|syne. We'll|
w: auld _ lang _|syne.||||||
 A3/2 c/ c =B | c3/2 c/ c c | (A/ F3/2) (F/ E3/2) | F3 :| %18
w: tak' a cup o'|kind- ness yet, For|auld _ lang _|syne.|
w: ||||
V:4
 C, | F,3/2 F,/ F, F, | C,3/2 C,/ C, A,, | D,3/2 D,/ C, C, | B,,3 (B,,/ B,,/) | F,3/2 F,/ F, F, | %6
w: 1.Should|auld ac- quaint- ance|be for- got, And|nev- er brought to|mind? Should _|auld ac- quaint- ance|
w: 2.And|here's a hand, my|trust- y friend, And|gie's a hand o'|thine, And we'll|tak' a cup o'|
 C,3/2 C,/ C, A,, | (B,,3/2 B,,/) (B,, C,) | F,,3 |: B,, | F,2 F,2 | C,3/2 C,/ C, F, | F,2 F,2 | %13
w: be for- got And|days of lang _|syne?|For|auld lang|syne, my dear, For|auld lang|
w: kind- ness yet, For|auld _ lang _|syne.|||||
 B,,3 B,, | F,3/2 F,/ F, D, | C,3/2 C,/ C, A,, | D,2 (B,,/ C,3/2) | F,,3 :| %18
w: syne. We'll|tak' a cup o'|kind- ness yet, For|auld lang _|syne.|
w: |||||

